X:1
T:The Promised Land (Gill)
T:The Promised Land (Gill)
T:William James Kirkpatrick
T:Joshua Gill, 1889
T:Public Domain Courtesy of the Cyber Hymnal™
T:Public Domain Courtesy of the Cyber Hymnal™
C:William James Kirkpatrick
Z:Public Domain
Z:Courtesy of the Cyber Hymnal™
%%score ( 1 2 ) ( 3 4 )
L:1/8
Q:1/4=95
M:3/4
K:F
V:1 treble 
V:2 treble 
V:3 bass 
V:4 bass 
V:1
 (FG) | [FA]3 [FA] [FA][FA] | [Ec] [EB]3 (GA) | [EB]3 [EB] [Ec][EB] | [FA]4 (FG) | %5
w: 1.~I *|fled from E- gypt’s|bond- age, I *|heard that help was|near; I *|
w: 2.~I *|sang a song of|tri- umph, I *|shout- ed o’er and|o’er; And *|
w: 3.~The *|spies brought back their|mes- sage, Some *|wept, some said, “We|can”; The *|
w: 4.~Then, *|af- ter wea- ry|march- es, And *|many a long- ing|sigh, I *|
w: 5.~And *|now my song of|glad- ness I’m *|sing- ing day by|day, For *|
 [FA]3 [FA] [FA][FA] | [Ec] [EB]3 (GA) | [EB]3 [EB] [Ec][EB] | [FA]4 F2 | [Fd]3 [Fd] [Fd][Fd] | %10
w: cast my care on|Je- sus, And *|He dis- persed my|fear: I|passed be- tween the|
w: then pur- sued my|jour- ney, For *|Ca- naan’s hap- py|shore: I|came to Si- nai’s|
w: land was all ’twas|prom- ised, But *|who would lead the|van? At|last, my heart des-|
w: found the ri- ver|cross- ing, And *|saw the land was|nigh: The|Lord looked down in|
w: fel- low- ship with|Je- sus Makes *|calm and bright my|way; I|fear not for the|
 [Fd] [Fc]3 [FA]2 | [Ec]3 [Ec] [Ec][EB] | [FA]4 F2 | [Fd]3 [Fd] [Fd][Fd] | [Fd] [Fc]3 [FA]2 | %15
w: bil- lows, Walled|up on ev- ery|hand; I|trust- ed to my|cap- tain, And|
w: moun- tain, I|trod the des- ert|sand, I|drank at Hor- eb’s|foun- tain, Seek-|
w: pair- ing, Of|en- tering with this|band, I|cried a- loud to|Je- sus, To|
w: mer- cy, By|faith I touched His|hand, I|fol- lowed close be-|side Him, And|
w: mor- row, For|His al- might- y|hand I|know shall lead and|keep me In|
 [EG]3 [Ec] [D=B][Fd] | [Ec]4 ||"^Refrain" F[FG] | [FA] [FA]3 [FA]2 | [EB] [EB]3 [EB]2 | %20
w: sought the prom- ised|land.||||
w: ing the prom- ised|land.||||
w: show the prom- ised|land.|I am|o- ver, yes|o- ver On|
w: found the prom- ised|land.||||
w: this, the prom- ised|land.||||
 [Fc]3 [Fd] [Fc][FA] | [EG]4 [Gc][GB] | [FA] [FA]3 [Fc]2 | [FB] [Fd]3- [Fd]2 | %24
w: ||||
w: ||||
w: Ca- naan’s shore I|stand; I am|o- ver, yes,|o- ver, *|
w: ||||
w: ||||
 [Fc]3 [FA] [EB][EG] | [CF]4 |] %26
w: ||
w: ||
w: In the prom- ised|land.|
w: ||
w: ||
V:2
 F2 | x6 | x4 E2 | x6 | x4 F2 | x6 | x4 E2 | x6 | x4 F2 | x6 | x6 | x6 | x4 F2 | x6 | x6 | x6 | %16
 x4 || F x | x6 | x6 | x6 | x6 | x6 | x6 | x6 | x4 |] %26
V:3
 (A,B,) | [F,C]3 [F,C] [F,C][F,A,] | [C,G,] [C,G,]3 [C,G,]2 | [C,G,]3 [C,G,] [C,G,][C,C] | %4
 [F,C]4 (A,C) | [F,C]3 [F,C] [F,C][F,A,] | [C,G,] [C,G,]3 [C,G,]2 | [C,G,]3 [C,G,] [C,G,][C,C] | %8
 [F,C]4 [F,A,]2 | [B,,B,]3 [B,,B,] [B,,B,][D,B,] | [F,B,] [F,A,]3 [F,A,]2 | %11
 [C,G,]3 [C,G,] [C,G,][C,C] | [F,C]4 [F,A,]2 | [B,,B,]3 [C,B,] [C,B,][E,B,] | %14
 [F,B,] [F,A,]3 [F,C]2 | [G,C]3 G, G,G, | [C,G,]4 || [F,A,][G,B,] | [G,C] [F,C]3 [F,C]2 | %19
 [G,C] [G,C]3 [G,C]2 | [A,C]3 [B,F] [A,F][F,C] | [C,C]4 [E,C][E,C] | [F,C] [F,C]3 [A,,_E]2 | %23
 [B,,D] [B,,B,]3- [B,,B,]2 | [C,A,]3 [C,C] [C,G,][C,B,] | [F,A,]4 |] %26
V:4
 F,2 | x6 | x6 | x6 | x4 F,2 | x6 | x6 | x6 | x6 | x6 | x6 | x6 | x6 | x6 | x6 | x3 G, G,G, | x4 || %17
 x2 | x6 | x6 | x6 | x6 | x6 | x6 | x6 | x4 |] %26

